X:16
T:Polska från Värmland
T:Svenska Folkdansar H4 nr 16
O:Värmland
B:Traditioner av Svenska Folkdansar Häfte 4, nr 16
R:Polska
Z:Nils L
M:3/4
L:1/16
K:Am
CEAE CEAE CEAE | {d/}c2BA {c/}B2A^G A2A2 | ABcd e2c2 B2A2 | ABcd ea^gb a4 |
CEAE CEAE CEAE | {d/}c2BA {c/}B2A^G A2A2 | ABcd e2c2 B2A2 | (cB)A^G A4 A,4 ::
c2cc c2c2 c2c2 | B2BB B2B2 B2B2 | A2e2 d2c2 B2A2 | ABcd ea^gb a4 |
c2cc c2c2 c2c2 | B2BB B2B2 B2B2 | A2>^G2 A2c2 e2a2 | (ed).B.^G A4 A,4 :|

